X:1
T: Sarona               2 Chords
T: 4 x 32S 4C
P: Sarona
C: J. Scott Skinner
C: from Anselm Lingnau, mods. by T. Traub 2-11-2004
R: Air/Strathspey
S: Anselm Lingnau 
D: Album                Musician        Track Tune
D: Dancing Forth        Gordon Shand      14   3
D: Highlander, Vol 2    Neil Barron        6   2
D: Highlander, Vol 3    David Cunningham   6   8
D: Highlander, Vol 5    Iain MacPhail      6   6
D: Scottish Dance Music Music Makars       4   1 (Lead Tune!)
D: Special requests 2   Colin Dewar       12   2
M: 4/4
L: 1/8
K: D
|: A,2 | "D"F3 E D2 F2 | "F#m"A3 G F2 A2 |1 "G"d3 c B2 A2 | "D"dA GF "A7"F2 E2:|2 "G"d3 c "D"dA GF | "A7"F2 E2 "D"D4 ||
"D"A2 d2 "A7"c2 de | "Bm"d3 A G2 F2 | "Em"EFGA "Bm"BcdA | "G"Bc/d/ GF "A7"F2 E2 |
"D (F#)"F3 E D2 F2 | "F#m"A3 G F2 A2 | "Bm"d3 c "Em"dA GF | "A7"F2 E2 "D"D2 |]
